X:142
T:Lottery. THO5.142, The
M:C|
L:1/8
B:Thompson's Complete Collection of 200 Favourite Dances Vol.5
F:https://www.libraryofdance.org/manuals/1780c-Thompson-Compleat-5.pdf
Z:vmp. Peter Dunk 2024
Q:1/4=120
K:D
a|a>baf gfed|c>def ecAG|FAGB Acdb|afdf fe za|
a>baf gfed|c>def ecAG|FAGB Acdb|afef d2D:|
|:A|F>GAA BAdA|F>GAA B/A/G/F/ EA|F>GAA BAdA|GFED A2 A,2|
F>GAA BAdA|F>GAA B/A/G/F/ EA|F>GAA BAdB|AGFE D2-D2:|
W:
W:Hey contrary sides ./.
W:then on your own sides ./:
W:Lead down the middle through the Bottom,
W:the 2nd Couple follow $ cast up into their own place :/.
W:Cross over one Couple, Right & Left :/:

